svg/Regular/CirclePlay.svg

<svg xmlns="http://www.w3.org/2000/svg" width="24" height="24" viewBox="0 0 24 24" fill="none"><path d="M16.125 12L16.5225 12.636C16.7418 12.4989 16.875 12.2586 16.875 12C16.875 11.7414 16.7418 11.5011 16.5225 11.364L16.125 12ZM10.125 8.25L10.5225 7.614C10.2913 7.4695 9.99989 7.46185 9.76142 7.59402C9.52296 7.72619 9.375 7.97736 9.375 8.25H10.125ZM10.125 15.75H9.375C9.375 16.0226 9.52296 16.2738 9.76142 16.406C9.99989 16.5382 10.2913 16.5305 10.5225 16.386L10.125 15.75ZM21 12H20.25C20.25 16.5563 16.5563 20.25 12 20.25V21V21.75C17.3848 21.75 21.75 17.3848 21.75 12H21ZM12 21V20.25C7.44365 20.25 3.75 16.5563 3.75 12H3H2.25C2.25 17.3848 6.61522 21.75 12 21.75V21ZM3 12H3.75C3.75 7.44365 7.44365 3.75 12 3.75V3V2.25C6.61522 2.25 2.25 6.61522 2.25 12H3ZM12 3V3.75C16.5563 3.75 20.25 7.44365 20.25 12H21H21.75C21.75 6.61522 17.3848 2.25 12 2.25V3ZM16.125 12L16.5225 11.364L10.5225 7.614L10.125 8.25L9.7275 8.886L15.7275 12.636L16.125 12ZM10.125 8.25H9.375V15.75H10.125H10.875V8.25H10.125ZM10.125 15.75L10.5225 16.386L16.5225 12.636L16.125 12L15.7275 11.364L9.7275 15.114L10.125 15.75Z" fill="currentColor"/></svg>

<svg xmlns="http://www.w3.org/2000/svg" width="24" height="24" fill="none" viewBox="0 0 24 24"><path fill="currentColor" d="m16.125 12 .398.636a.75.75 0 0 0 0-1.272zm-6-3.75.398-.636a.75.75 0 0 0-1.148.636zm0 7.5h-.75a.75.75 0 0 0 1.148.636zM21 12h-.75A8.25 8.25 0 0 1 12 20.25v1.5A9.75 9.75 0 0 0 21.75 12zm-9 9v-.75A8.25 8.25 0 0 1 3.75 12h-1.5A9.75 9.75 0 0 0 12 21.75zm-9-9h.75A8.25 8.25 0 0 1 12 3.75v-1.5A9.75 9.75 0 0 0 2.25 12zm9-9v.75A8.25 8.25 0 0 1 20.25 12h1.5A9.75 9.75 0 0 0 12 2.25zm4.125 9 .398-.636-6-3.75-.398.636-.398.636 6 3.75zm-6-3.75h-.75v7.5h1.5v-7.5zm0 7.5.398.636 6-3.75-.398-.636-.398-.636-6 3.75z"/></svg>
